img/svg/icon-font/calendar.svg

<svg width="22" height="22" viewBox="0 0 22 22" fill="none" xmlns="http://www.w3.org/2000/svg">
<path fill-rule="evenodd" clip-rule="evenodd" d="M18.5625 1.71875H17.4453V0.859375C17.4453 0.384742 17.0606 0 16.5859 0C16.1113 0 15.7266 0.384742 15.7266 0.859375V1.71875H11.8164V0.859375C11.8164 0.384742 11.4317 0 10.957 0C10.4824 0 10.0977 0.384742 10.0977 0.859375V1.71875H6.23047V0.859375C6.23047 0.384742 5.84573 0 5.37109 0C4.89646 0 4.51172 0.384742 4.51172 0.859375V1.71875H3.4375C1.54206 1.71875 0 3.26081 0 5.15625V18.5625C0 20.4579 1.54206 22 3.4375 22H10.0117C10.4864 22 10.8711 21.6153 10.8711 21.1406C10.8711 20.666 10.4864 20.2812 10.0117 20.2812H3.4375C2.48978 20.2812 1.71875 19.5102 1.71875 18.5625V5.15625C1.71875 4.20853 2.48978 3.4375 3.4375 3.4375H4.51172V4.29688C4.51172 4.77151 4.89646 5.15625 5.37109 5.15625C5.84573 5.15625 6.23047 4.77151 6.23047 4.29688V3.4375H10.0977V4.29688C10.0977 4.77151 10.4824 5.15625 10.957 5.15625C11.4317 5.15625 11.8164 4.77151 11.8164 4.29688V3.4375H15.7266V4.29688C15.7266 4.77151 16.1113 5.15625 16.5859 5.15625C17.0606 5.15625 17.4453 4.77151 17.4453 4.29688V3.4375H18.5625C19.5102 3.4375 20.2812 4.20853 20.2812 5.15625V10.0547C20.2812 10.5293 20.666 10.9141 21.1406 10.9141C21.6153 10.9141 22 10.5293 22 10.0547V5.15625C22 3.26081 20.4579 1.71875 18.5625 1.71875ZM16.5859 9.88281C17.0606 9.88281 17.4453 9.49806 17.4453 9.02344C17.4453 8.54882 17.0606 8.16406 16.5859 8.16406C16.1113 8.16406 15.7266 8.54882 15.7266 9.02344C15.7266 9.49806 16.1113 9.88281 16.5859 9.88281ZM11.6016 16.8008C11.6016 13.9339 13.9339 11.6016 16.8008 11.6016C19.6677 11.6016 22 13.9339 22 16.8008C22 19.6677 19.6677 22 16.8008 22C13.9339 22 11.6016 19.6677 11.6016 16.8008ZM13.3203 16.8008C13.3203 18.7199 14.8817 20.2812 16.8008 20.2812C18.7199 20.2812 20.2812 18.7199 20.2812 16.8008C20.2812 14.8816 18.7199 13.3203 16.8008 13.3203C14.8817 13.3203 13.3203 14.8816 13.3203 16.8008ZM18.0469 15.9414H17.6602V15.0391C17.6602 14.5644 17.2754 14.1797 16.8008 14.1797C16.3261 14.1797 15.9414 14.5644 15.9414 15.0391V16.8008C15.9414 17.2754 16.3261 17.6602 16.8008 17.6602H18.0469C18.5215 17.6602 18.9062 17.2754 18.9062 16.8008C18.9062 16.3261 18.5215 15.9414 18.0469 15.9414ZM13.707 9.02344C13.707 9.49806 13.3223 9.88281 12.8477 9.88281C12.373 9.88281 11.9883 9.49806 11.9883 9.02344C11.9883 8.54882 12.373 8.16406 12.8477 8.16406C13.3223 8.16406 13.707 8.54882 13.707 9.02344ZM9.10938 13.6211C9.58399 13.6211 9.96875 13.2363 9.96875 12.7617C9.96875 12.2871 9.58399 11.9023 9.10938 11.9023C8.63476 11.9023 8.25 12.2871 8.25 12.7617C8.25 13.2363 8.63476 13.6211 9.10938 13.6211ZM6.23047 9.02344C6.23047 9.49806 5.84571 9.88281 5.37109 9.88281C4.89647 9.88281 4.51172 9.49806 4.51172 9.02344C4.51172 8.54882 4.89647 8.16406 5.37109 8.16406C5.84571 8.16406 6.23047 8.54882 6.23047 9.02344ZM5.37109 13.6211C5.84571 13.6211 6.23047 13.2363 6.23047 12.7617C6.23047 12.2871 5.84571 11.9023 5.37109 11.9023C4.89647 11.9023 4.51172 12.2871 4.51172 12.7617C4.51172 13.2363 4.89647 13.6211 5.37109 13.6211ZM6.23047 16.5C6.23047 16.9746 5.84571 17.3594 5.37109 17.3594C4.89647 17.3594 4.51172 16.9746 4.51172 16.5C4.51172 16.0254 4.89647 15.6406 5.37109 15.6406C5.84571 15.6406 6.23047 16.0254 6.23047 16.5ZM9.10938 17.3594C9.58399 17.3594 9.96875 16.9746 9.96875 16.5C9.96875 16.0254 9.58399 15.6406 9.10938 15.6406C8.63476 15.6406 8.25 16.0254 8.25 16.5C8.25 16.9746 8.63476 17.3594 9.10938 17.3594ZM9.96875 9.02344C9.96875 9.49806 9.58399 9.88281 9.10938 9.88281C8.63476 9.88281 8.25 9.49806 8.25 9.02344C8.25 8.54882 8.63476 8.16406 9.10938 8.16406C9.58399 8.16406 9.96875 8.54882 9.96875 9.02344Z" fill="#4C51CB"/>
</svg>

<svg width="22" height="22" fill="none" xmlns="http://www.w3.org/2000/svg"><path fill-rule="evenodd" clip-rule="evenodd" d="M18.563 1.719h-1.118v-.86a.86.86 0 10-1.718 0v.86h-3.91v-.86a.86.86 0 10-1.72 0v.86H6.23v-.86a.86.86 0 10-1.718 0v.86H3.438A3.441 3.441 0 000 5.156v13.407A3.441 3.441 0 003.438 22h6.574a.86.86 0 100-1.719H3.437a1.72 1.72 0 01-1.718-1.718V5.155a1.72 1.72 0 011.718-1.718h1.075v.859a.86.86 0 101.718 0v-.86h3.868v.86a.86.86 0 101.718 0v-.86h3.91v.86a.86.86 0 101.72 0v-.86h1.116a1.72 1.72 0 011.72 1.72v4.898a.86.86 0 001.718 0V5.156a3.441 3.441 0 00-3.438-3.437zm-1.977 8.164a.86.86 0 100-1.719.86.86 0 000 1.719zM11.602 16.8c0-2.867 2.332-5.2 5.199-5.2S22 13.935 22 16.802 19.668 22 16.8 22a5.205 5.205 0 01-5.198-5.2zm1.718 0a3.484 3.484 0 003.48 3.48 3.484 3.484 0 003.481-3.48c0-1.92-1.561-3.48-3.48-3.48a3.484 3.484 0 00-3.48 3.48zm4.727-.86h-.387v-.902a.86.86 0 10-1.719 0V16.8c0 .474.385.86.86.86h1.246a.86.86 0 000-1.72zm-4.34-6.918a.86.86 0 11-1.719 0 .86.86 0 011.719 0zM9.109 13.62a.86.86 0 100-1.719.86.86 0 000 1.72zM6.23 9.023a.86.86 0 11-1.718 0 .86.86 0 011.718 0zm-.859 4.598a.86.86 0 100-1.719.86.86 0 000 1.72zm.86 2.879a.86.86 0 11-1.72 0 .86.86 0 011.72 0zm2.878.86a.86.86 0 100-1.72.86.86 0 000 1.72zm.86-8.337a.86.86 0 11-1.719 0 .86.86 0 011.719 0z" fill="#4C51CB"/></svg>
